Papirus/48x48/mimetypes/application-x-hda.svg

<svg width="48" height="48" version="1.1" xmlns="http://www.w3.org/2000/svg">
 <path d="m6.0078148 16.748229c-0.00451 0.07662-0.00708 0.153359-0.00779 0.230118v15.66199c4.688e-4 1.635885 0.8707781 3.147306 2.283202 3.965118l13.433589 7.780758c1.41281 0.818383 3.153593 0.818383 4.566404 0l13.433578-7.780758c1.413025-0.818163 2.283429-2.330497 2.283197-3.967085v-15.660023c-0.0021-0.05776-0.0054-0.115447-0.0097-0.17308 0.0097-0.0019-35.982381-0.05704-35.982381-0.05704z" style="opacity:.2"/>
 <path d="m6.0078148 16.028931c-0.00451 0.07662-0.00708 0.153358-0.00779 0.230118v15.66199c4.688e-4 1.635884 0.8707781 3.147305 2.283202 3.965117l13.433589 7.780758c1.41281 0.818384 3.153593 0.818384 4.566404 0l13.433585-7.780758c1.413026-0.818163 2.283429-2.330495 2.283197-3.967085v-15.660022c-0.0021-0.05776-0.0054-0.115447-0.0097-0.17308 0.0097-0.0019-35.982381-0.05704-35.982381-0.05704z" style="fill:#c25824"/>
 <path d="m24.107501 3.999998v0.00201a4.5691449 4.6343101 0 0 0-2.392445 0.616966l-13.443798 7.873354a4.5691449 4.6343101 0 0 0-2.2712562 3.715767 4.5691449 4.6343101 0 0 0 2.2712562 3.753583l13.443798 7.873369a4.5691449 4.6343101 0 0 0 4.569876 0l13.443801-7.873369a4.5691449 4.6343101 0 0 0 2.271255-3.715767 4.5691449 4.6343101 0 0 0-2.271255-3.753583l-13.443801-7.8733674a4.5691449 4.6343101 0 0 0-2.177431-0.6189626z" style="fill:#f36128"/>
 <path d="m24.106871 3.999998v0.00281a4.5691449 4.6343101 0 0 0-2.390624 0.615333l-13.443745 7.872951a4.5691449 4.6343101 0 0 0-2.2724998 3.717311 4.5691449 4.6343101 0 0 0 0.039378 0.342792 4.5691449 4.6343101 0 0 1 2.233124-3.340804l13.443744-7.8729485a4.5691449 4.6343101 0 0 1 2.390625-0.6153367v-0.00281a4.5691449 4.6343101 0 0 1 2.176874 0.618147l13.443742 7.8729412a4.5691449 4.6343101 0 0 1 2.233123 3.373115 4.5691449 4.6343101 0 0 0 0.03938-0.338576 4.5691449 4.6343101 0 0 0-2.272499-3.753839l-13.443749-7.8729391a4.5691449 4.6343101 0 0 0-2.176873-0.6181469z" style="fill:#ffffff;opacity:.2"/>
 <path d="m6.0084396 16.028575c-0.00298 0.05046-0.00431 0.101196-0.00564 0.151728a4.5691449 4.6343101 0 0 1 0.015462-0.151728h-0.00985zm-0.00708 0.192469c-2.124e-4 0.01264-0.00133 0.02529-0.00133 0.03793v15.661595c4.689e-4 1.635885 0.871325 3.148164 2.2837499 3.965975l13.432496 7.780222c0.726942 0.42109 1.472501 0.626176 2.283749 0.613934v-15.828774a4.5691449 4.6343101 0 0 1-2.28517-0.616742l-13.443759-7.872947a4.5691449 4.6343101 0 0 1-2.2696856-3.741193z" style="opacity:.1"/>
 <path d="m6.0393776 15.869824a4.5691449 4.6343101 0 0 0-0.0393776 0.338576 4.5691449 4.6343101 0 0 0 2.2724988 3.753837l13.443745 7.872947a4.5691449 4.6343101 0 0 0 4.567498 0l13.443747-7.872947a4.5691449 4.6343101 0 0 0 2.272499-3.717309 4.5691449 4.6343101 0 0 0-0.03938-0.342792 4.5691449 4.6343101 0 0 1-2.233124 3.340803l-13.443744 7.872946a4.5691449 4.6343101 0 0 1-4.567498 0l-13.44374-7.872946a4.5691449 4.6343101 0 0 1-2.2331241-3.373115z" style="opacity:.1"/>
 <path d="m32.299677 22.629113c-2.848465 1.661948-6.343597 2.623941-8.120237 2.886543-1.414555 0.209083-3.174219 0.230783-5.255483-0.035-1.676382-0.981727-2.71782-1.588235-3.736636-2.189793 1.544628 0.229316 3.423899 0.443449 5.178199 0.59752 2.488794 0.218576 6.221019-0.664437 9.071982-2.293011 0.191235-0.109175 0.380877-0.222964 0.568687-0.340959 4.280227-2.689934 3.920777-6.514068 0.400396-8.693098-3.946261-2.443332-9.222803-2.553661-13.396805 0.103047-2.801884 1.78323-3.589855 4.62408-0.588695 6.304792 2.359126 1.32135 5.847212 1.426066 8.53674-0.112145 2.194222-1.255001 1.630488-2.64306 0.739497-3.182445-0.847658-0.513153-2.461796-0.862196-3.992764-0.250111-1.232014 0.492556-1.615859 1.991549 0.890033 2.18599-1.056124 0.697234-2.702385 0.870249-3.979211 0.181677-2.492362-1.344591-0.940638-3.427587 0.914704-4.260694 3.42825-1.539603 6.421842-1.065044 8.948772 0.498193 2.616134 1.618896 2.427694 4.505756-0.736406 6.416702-2.503984 1.512022-5.96898 2.601152-11.044546 1.304701-5.075565-1.29645-6.363105-4.147126-5.357065-7.188412 0.817511-2.382559 4.302261-5.0179174 9.265441-5.7852582 4.963178-0.7673407 8.937119-0.21954 12.634422 2.0871142 5.225998 3.261182 5.266656 8.142917-0.941025 11.764639v2e-6" style="opacity:.2"/>
 <path d="m32.299677 21.910005c-2.848465 1.66195-6.343597 2.623942-8.120237 2.886542-1.77664 0.262603-4.129093 0.228926-6.931865-0.297611l-3.79066-2.219892c1.67949 0.332197 4.419811 0.67166 6.908605 0.890236 2.488794 0.218577 6.221019-0.664435 9.071982-2.29301 0.191235-0.109176 0.380877-0.222964 0.568687-0.340959 4.280227-2.689935 3.920777-6.514067 0.400396-8.693097-3.946261-2.4433333-9.222803-2.5536622-13.396805 0.103047-2.801884 1.783231-3.589855 4.624081-0.588695 6.304792 2.359126 1.32135 5.847212 1.426066 8.53674-0.112146 2.194222-1.255 1.630488-2.64306 0.739497-3.182445-0.847658-0.513151-2.461796-0.862195-3.992764-0.25011-1.232014 0.492557-1.615859 1.991548 0.890033 2.18599-1.056124 0.697236-2.702385 0.870249-3.979211 0.181678-2.492362-1.344592-0.940638-3.427588 0.914704-4.260695 3.42825-1.539601 6.421842-1.065044 8.948772 0.498194 2.616134 1.618893 2.427694 4.505756-0.736406 6.416701-2.503984 1.512022-5.96898 2.601152-11.044546 1.304702-5.075565-1.296452-6.363105-4.147126-5.357065-7.188413 0.817511-2.382559 4.302261-5.0179178 9.265441-5.7852584 4.963178-0.7673408 8.937119-0.2195402 12.634422 2.0871154 5.225998 3.261181 5.266656 8.142917-0.941025 11.764638v1e-6" style="fill:#e4e4e4"/>
</svg>

<svg xmlns="http://www.w3.org/2000/svg" width="48" height="48" version="1.1">
 <path style="opacity:0.2" d="M 6.0078,16.748 C 6.0033,16.825 6.0007,16.902 6,16.978 V 32.64 C 6.0005,34.276 6.8708,35.788 8.2832,36.605 L 21.717,44.386 C 23.13,45.205 24.87,45.205 26.283,44.386 L 39.717,36.605 C 41.13,35.787 42,34.275 42,32.638 V 16.978 C 41.998,16.921 41.995,16.863 41.99,16.805 42,16.803 6.0079,16.748 6.0079,16.748 Z"/>
 <path style="fill:#c25824" d="M 6.0078,16.029 C 6.0033,16.106 6.0007,16.182 6,16.259 V 31.921 C 6.0005,33.557 6.8708,35.068 8.2832,35.886 L 21.717,43.667 C 23.13,44.485 24.87,44.485 26.283,43.667 L 39.717,35.886 C 41.13,35.068 42,33.556 42,31.919 V 16.259 C 41.998,16.201 41.995,16.144 41.99,16.086 42,16.084 6.0079,16.029 6.0079,16.029 Z"/>
 <path style="fill:#f36128" d="M 24.108,4 V 4.002 A 4.5691,4.6343 0 0 0 21.715,4.619 L 8.2713,12.492 A 4.5691,4.6343 0 0 0 6,16.208 4.5691,4.6343 0 0 0 8.2713,19.962 L 21.715,27.835 A 4.5691,4.6343 0 0 0 26.285,27.835 L 39.729,19.962 A 4.5691,4.6343 0 0 0 42,16.246 4.5691,4.6343 0 0 0 39.729,12.492 L 26.285,4.619 A 4.5691,4.6343 0 0 0 24.108,4 Z"/>
 <path style="opacity:0.2;fill:#ffffff" d="M 24.107,4 V 4.0028 A 4.5691,4.6343 0 0 0 21.716,4.6181 L 8.2725,12.491 A 4.5691,4.6343 0 0 0 6,16.208 4.5691,4.6343 0 0 0 6.0394,16.551 4.5691,4.6343 0 0 1 8.2725,13.21 L 21.716,5.3374 A 4.5691,4.6343 0 0 1 24.107,4.7221 V 4.7193 A 4.5691,4.6343 0 0 1 26.284,5.3374 L 39.727,13.21 A 4.5691,4.6343 0 0 1 41.961,16.583 4.5691,4.6343 0 0 0 42,16.245 4.5691,4.6343 0 0 0 39.727,12.491 L 26.284,4.6181 A 4.5691,4.6343 0 0 0 24.107,4 Z"/>
 <path style="opacity:0.1" d="M 6.0084,16.029 C 6.0055,16.079 6.0041,16.13 6.0028,16.18 A 4.5691,4.6343 0 0 1 6.0183,16.029 Z M 6.0014,16.221 C 6.0011,16.234 6,16.246 6,16.259 V 31.921 C 6.0005,33.556 6.8714,35.069 8.2838,35.887 L 21.716,43.667 C 22.443,44.088 23.189,44.293 24,44.281 V 28.452 A 4.5691,4.6343 0 0 1 21.715,27.835 L 8.2711,19.962 A 4.5691,4.6343 0 0 1 6.0014,16.221 Z"/>
 <path style="opacity:0.1" d="M 6.0394,15.87 A 4.5691,4.6343 0 0 0 6,16.208 4.5691,4.6343 0 0 0 8.2725,19.962 L 21.716,27.835 A 4.5691,4.6343 0 0 0 26.284,27.835 L 39.727,19.962 A 4.5691,4.6343 0 0 0 42,16.245 4.5691,4.6343 0 0 0 41.961,15.902 4.5691,4.6343 0 0 1 39.727,19.243 L 26.284,27.116 A 4.5691,4.6343 0 0 1 21.716,27.116 L 8.2725,19.243 A 4.5691,4.6343 0 0 1 6.0394,15.87 Z"/>
 <path style="opacity:0.2" d="M 32.3,22.629 C 29.451,24.291 25.956,25.253 24.179,25.516 22.765,25.725 21.005,25.746 18.924,25.481 17.248,24.499 16.206,23.892 15.187,23.291 16.732,23.52 18.611,23.734 20.366,23.888 22.854,24.107 26.587,23.224 29.438,21.595 29.629,21.486 29.818,21.372 30.006,21.254 34.286,18.564 33.927,14.74 30.407,12.561 26.46,10.118 21.184,10.008 17.01,12.664 14.208,14.448 13.42,17.288 16.421,18.969 18.78,20.291 22.268,20.395 24.958,18.857 27.152,17.602 26.588,16.214 25.697,15.675 24.85,15.161 23.236,14.812 21.705,15.424 20.473,15.917 20.089,17.416 22.595,17.61 21.538,18.308 19.892,18.481 18.615,17.792 16.123,16.448 17.675,14.365 19.53,13.531 22.958,11.992 25.952,12.466 28.479,14.03 31.095,15.649 30.907,18.535 27.742,20.446 25.238,21.958 21.773,23.047 16.698,21.751 11.622,20.455 10.335,17.604 11.341,14.563 12.158,12.18 15.643,9.5447 20.606,8.7774 25.569,8.01 29.543,8.5578 33.241,10.864 38.467,14.126 38.507,19.007 32.3,22.629 V 22.629"/>
 <path style="fill:#e4e4e4" d="M 32.3,21.91 C 29.451,23.572 25.956,24.534 24.179,24.797 22.403,25.059 20.05,25.025 17.248,24.499 L 13.457,22.279 C 15.136,22.611 17.877,22.951 20.366,23.169 22.854,23.388 26.587,22.505 29.438,20.876 29.629,20.767 29.818,20.653 30.006,20.535 34.286,17.845 33.927,14.021 30.407,11.842 26.46,9.3989 21.184,9.2886 17.01,11.945 14.208,13.728 13.42,16.569 16.421,18.25 18.78,19.571 22.268,19.676 24.958,18.138 27.152,16.883 26.588,15.495 25.697,14.955 24.85,14.442 23.236,14.093 21.705,14.705 20.473,15.198 20.089,16.697 22.595,16.891 21.538,17.589 19.892,17.762 18.615,17.073 16.123,15.728 17.675,13.645 19.53,12.812 22.958,11.273 25.952,11.747 28.479,13.311 31.095,14.929 30.907,17.816 27.742,19.727 25.238,21.239 21.773,22.328 16.698,21.032 11.622,19.735 10.335,16.885 11.341,13.844 12.158,11.461 15.643,8.8256 20.606,8.0583 25.569,7.2909 29.543,7.8387 33.241,10.145 38.467,13.407 38.507,18.288 32.3,21.91 V 21.91"/>
</svg>
